svgs/voice.svg

<svg xmlns="http://www.w3.org/2000/svg" xml:space="preserve" style="fill-rule:evenodd;clip-rule:evenodd;stroke-linecap:round;stroke-linejoin:round;stroke-miterlimit:1.5" viewBox="0 0 192 192"><path d="M666.677 926c-3.012-.001-5.031-.006-6.416.558a6.003 6.003 0 0 1-7.819-3.297 6.003 6.003 0 0 1 3.297-7.819c2.407-.979 5.902-1.442 11.261-1.442 2.879 0 5.529.363 8 1.066 4.688-4.45 10.293-7.066 18-7.066 9.177 0 15.685 4.598 20.623 10.865 4.026 5.111 6.903 11.393 9.605 16.19l.039.072 5.961 10.929c1.53 2.684 3.115 6.042 5.066 9.266.141-.154.279-.31.414-.466 2.168-2.504 3.837-5.266 5.492-7.456l5.993-7.991c2.553-3.426 5.432-8.171 9.398-12.093C760.355 922.604 766.51 919 775 919c4.346 0 7.872.66 10.896 1.87 4.378-3.257 9.266-4.87 15.104-4.87 2.887 0 5.031.637 7.024 1.352a6.002 6.002 0 0 1 3.624 7.672 6.002 6.002 0 0 1-7.672 3.624c-.849-.304-1.746-.648-2.976-.648-1.675 0-3.192.258-4.594.754 2.692 3.022 5.291 6.615 8.348 10.586l.046.06 6 8a6.003 6.003 0 0 1-1.2 8.4 6.003 6.003 0 0 1-8.4-1.2l-5.959-7.946c-2.925-3.801-5.264-7.281-7.805-10.099a63.609 63.609 0 0 0-2.254 3.472l-6.875 12.275c-2.386 4.735-6.83 12.326-13.305 17.72-4.902 4.083-10.904 6.932-17.963 6.978-6.394.042-11.441-2.356-15.524-6.025-2.228.664-4.724 1.039-7.545 1.025-15.466-.077-26.065-13.803-29.962-19.672l-11.853-17.778c-1.312-1.614-2.64-3.048-4.042-4.258-2.411 3.734-4.727 8.083-7.42 12.714l-7.496 12.992a6.002 6.002 0 0 1-8.195 2.199 6.002 6.002 0 0 1-2.199-8.195l7.5-13a.186.186 0 0 1 .011-.019c2.275-3.911 4.323-7.625 6.363-10.983Zm56.481 33.973c-1.615-2.837-3.025-5.644-4.369-7.999a3.27 3.27 0 0 1-.056-.101l-5.976-10.956c-2.432-4.323-4.937-10.026-8.56-14.625C701.476 922.839 698.056 920 693 920c-2.597 0-4.752.564-6.625 1.561 1.832 1.647 3.586 3.546 5.302 5.68.111.139.217.283.315.431l12 18 .006.009c2.607 3.925 9.041 13.706 19.16 14.292Zm53.514-28.913c-.534-.04-1.091-.06-1.672-.06-5.921 0-9.764 3.264-12.737 6.763-2.583 3.04-4.594 6.33-6.453 8.823l-.01.014-6 8a.192.192 0 0 1-.013.017c-2.156 2.854-4.416 6.313-7.353 9.391a10.215 10.215 0 0 0 4.527.992c5.241-.034 9.378-2.941 12.624-6.315 3.837-3.987 6.489-8.761 8.052-11.876a7.96 7.96 0 0 1 .128-.241l7-12.5a73.657 73.657 0 0 1 1.907-3.008Z" style="fill-rule:evenodd;clip-rule:evenodd;stroke-linecap:round;stroke-linejoin:round;stroke-miterlimit:1.5" transform="translate(-636 -848)"/></svg>

<?xml version="1.0" encoding="UTF-8" standalone="no"?>
<svg
   width="100%"
   height="100%"
   viewBox="0 0 192 192"
   version="1.1"
   xml:space="preserve"
   style="fill-rule:evenodd;clip-rule:evenodd;stroke-linecap:round;stroke-linejoin:round;stroke-miterlimit:1.5;"
   id="svg20"
   sodipodi:docname="voice.svg"
   inkscape:version="1.2.2 (b0a8486541, 2022-12-01)"
   xmlns:inkscape="http://www.inkscape.org/namespaces/inkscape"
   xmlns:sodipodi="http://sodipodi.sourceforge.net/DTD/sodipodi-0.dtd"
   xmlns="http://www.w3.org/2000/svg"
   xmlns:svg="http://www.w3.org/2000/svg"><defs
   id="defs24" /><sodipodi:namedview
   id="namedview22"
   pagecolor="#ffffff"
   bordercolor="#000000"
   borderopacity="0.25"
   inkscape:showpageshadow="2"
   inkscape:pageopacity="0.0"
   inkscape:pagecheckerboard="0"
   inkscape:deskcolor="#d1d1d1"
   showgrid="false"
   inkscape:zoom="1.4539169"
   inkscape:cx="115.20604"
   inkscape:cy="143.74962"
   inkscape:window-width="1274"
   inkscape:window-height="631"
   inkscape:window-x="1282"
   inkscape:window-y="708"
   inkscape:window-maximized="0"
   inkscape:current-layer="svg20" />
    <path
   d="M666.677,926C663.665,925.999 661.646,925.994 660.261,926.558C657.194,927.806 653.691,926.329 652.442,923.261C651.194,920.194 652.671,916.691 655.739,915.442C658.146,914.463 661.641,914 667,914C669.879,914 672.529,914.363 675,915.066C679.688,910.616 685.293,908 693,908C702.177,908 708.685,912.598 713.623,918.865C717.649,923.976 720.526,930.258 723.228,935.055C723.241,935.079 723.254,935.103 723.267,935.127C723.267,935.127 729.241,946.079 729.228,946.056C730.758,948.74 732.343,952.098 734.294,955.322C734.435,955.168 734.573,955.012 734.708,954.856C736.876,952.352 738.545,949.59 740.2,947.4L746.193,939.409C748.746,935.983 751.625,931.238 755.591,927.316C760.355,922.604 766.51,919 775,919C779.346,919 782.872,919.66 785.896,920.87C790.274,917.613 795.162,916 801,916C803.887,916 806.031,916.637 808.024,917.352C811.141,918.468 812.765,921.906 811.648,925.024C810.532,928.141 807.094,929.765 803.976,928.648C803.127,928.344 802.23,928 801,928C799.325,928 797.808,928.258 796.406,928.754C799.098,931.776 801.697,935.369 804.754,939.34C804.77,939.36 804.785,939.38 804.8,939.4L810.8,947.4C812.787,950.049 812.249,953.813 809.6,955.8C806.951,957.787 803.187,957.249 801.2,954.6C801.2,954.6 795.221,946.628 795.241,946.654C792.316,942.853 789.977,939.373 787.436,936.555C786.684,937.626 785.938,938.785 785.182,940.027C785.182,940.027 778.3,952.315 778.307,952.302C775.921,957.037 771.477,964.628 765.002,970.022C760.1,974.105 754.098,976.954 747.039,977C740.645,977.042 735.598,974.644 731.515,970.975C729.287,971.639 726.791,972.014 723.97,972C708.504,971.923 697.905,958.197 694.008,952.328C694.008,952.328 682.16,934.557 682.155,934.55C680.843,932.936 679.515,931.502 678.113,930.292C675.702,934.026 673.386,938.375 670.693,943.006L663.197,955.998C661.542,958.867 657.87,959.852 655.002,958.197C652.133,956.542 651.148,952.87 652.803,950.002L660.303,937.002C660.306,936.996 660.31,936.989 660.314,936.983C662.589,933.072 664.637,929.358 666.677,926ZM723.158,959.973C721.543,957.136 720.133,954.329 718.789,951.974C718.77,951.941 718.751,951.907 718.733,951.873C718.733,951.873 712.751,940.906 712.757,940.917C710.325,936.594 707.82,930.891 704.197,926.292C701.476,922.839 698.056,920 693,920C690.403,920 688.248,920.564 686.375,921.561C688.207,923.208 689.961,925.107 691.677,927.241C691.788,927.38 691.894,927.524 691.992,927.672L703.992,945.672L703.998,945.681C706.605,949.606 713.039,959.387 723.158,959.973ZM776.672,931.06C776.138,931.02 775.581,931 775,931C769.079,931 765.236,934.264 762.263,937.763C759.68,940.803 757.669,944.093 755.81,946.586L755.8,946.6L749.8,954.6C749.796,954.606 749.792,954.611 749.787,954.617C747.631,957.471 745.371,960.93 742.434,964.008C743.764,964.641 745.257,965.011 746.961,965C752.202,964.966 756.339,962.059 759.585,958.685C763.422,954.698 766.074,949.924 767.637,946.809C767.678,946.728 767.721,946.648 767.765,946.568L774.765,934.068C774.799,934.007 774.835,933.946 774.872,933.886C775.468,932.903 776.068,931.961 776.672,931.06Z"
   id="path12"
   style="fill-rule:evenodd;clip-rule:evenodd;stroke-linecap:round;stroke-linejoin:round;stroke-miterlimit:1.5"
   transform="translate(-636,-848)"
   inkscape:label="voice_path" />
</svg>
